X: 216
T:North Skelton 1, v 2
% Nottingham Music Database
S:Trad, via EF
M:6/8
K:C
"C"edc G2G|"F"A2A "G7"G3|"C"efg G2G|"G7"A2B "C"c3|"C"edc G2G|"F"AcA "G7"Gdg|
"C"ec'a "C"gec|"F"A2B "G7"c2d|"C"efe "G"dgd|"Am"cdc "Em"BAG|"Am"efe "G"dGd|
"C"e2f "C7"g3|"F"ac'a "C"gec|"G7"fgf "C"e3|"C"gec G2G|"G7"A2B "C"c3||


